X:15
T:Harvey's
R:strathspey
C:Dougie MacDonald
O:20th century Cape Breton
D:Fiddle Tunes
B:Cape Breton Fiddler Dougie MacDonald:Fiddle Tunes, 1993
N:Bookings,Mechanicals etc.
N:..... Dougie MacDonald <dougmd68@hotmail.com>
Z:P.S.C.
S:http://www.cranfordpub.com/dougie
Q:300
L:1/8
M:C
K:Ador
B,|C>A, A,/A,/A, A>GE>A|G>DE<G D<GD>B,|C>A, A,/A,/A, A>GE>A|G>EF<D E2 D>B,|
C>A, A,/A,/A, A>GE>A|G>DE<G D<GD>B,|(3CB,A, (3CDE (3DCB, (3DE=F|E<CD>B, E>A, A,||
B|(3cBA (3Aag a>ee<a|g>de<g d>gdee<a|g>ef<d e2 d>B|
(3cBA (3Aag a>ee<a|g>de<g d>gdB e>AA|]
W:Copyrights - Dougie MacDonald (SOCAN)
